static/images/tech-icons/dark/docker.svg

<svg height="23" viewBox="0 0 92 23" width="92" xmlns="http://www.w3.org/2000/svg"><path d="m13.8025606 7.90593487v-5.8218279c0-.765.480375-1.37949069 1.2759961-1.37949069h.2201718c.7952637 0 1.2734942.61520232 1.2734942 1.37949069v12.25672323c0 2.9888373-1.4833008 5.3670977-4.0681758 6.8821535-1.1840843.6983666-2.53569062 1.0653283-3.91198247 1.0621047h-.54935738c-3.00305861 0-5.38884963-1.4776954-6.91325392-4.0491629-.70251312-1.1785826-1.07108943-2.5246461-1.06654688-3.8950953v-.5461744c0-2.9899046 1.48401563-5.36674185 4.0667461-6.88464417 1.1838646-.69980358 2.53622002-1.06686796 3.9130547-1.06210465h.54935738c2.03230077 0 3.75650397.78421395 5.21049617 2.05802789zm-10.97034966 6.16127443c0 2.1590791 1.05117773 3.7823023 2.95158985 4.817721.76845702.4184372 1.60267968.6433116 2.47943551.6433116 2.1288047 0 3.7078946-.9998373 4.7969591-2.7956303.5064667-.8354511.7423652-1.7495371.7423652-2.7212651 0-1.8715814-.8899805-3.3321977-2.4050918-4.4170744-.9185742-.6575442-1.95259572-.9873837-3.08026175-.9873837-2.32038283 0-3.99025783 1.16706975-4.99246876 3.2400418-.3381211.7009535-.49252735 1.4449605-.49252735 2.2202791zm23.34822656-8.21930233h.3838711c3.2089336 0 5.6494102 1.54956978 7.1959746 4.33808373.6183399 1.1154768.9493125 2.3330721.9493125 3.6086651v.5461744c0 2.9888373-1.4804414 5.3703-4.069248 6.8825093-1.1984356.699886-2.5223262 1.0617489-3.9112676 1.0617489h-.5486426c-3.0030586 0-5.3895644-1.4776954-6.9132539-4.0491629-.7028554-1.1784897-1.0718016-2.5245509-1.0676192-3.8950953v-.5461744c0-2.9902604 1.4900919-5.35926975 4.0663887-6.88393255 1.1977207-.70842558 2.5226836-1.06281628 3.9144844-1.06281628zm-5.2112109 8.21930233c0 2.0957442 1.0329492 3.6374861 2.811123 4.7216512.8349375.508814 1.754584.7393814 2.7299883.7393814 2.0801953 0 3.6178242-1.050007 4.6879453-2.7977652.5103984-.8333162.741293-1.7488255.741293-2.7191302 0-1.948793-.9428789-3.4375186-2.5548516-4.5163465-.8831894-.59171858-1.8664571-.8881116-2.9301446-.8881116-2.3203827 0-3.9902577 1.16706975-4.9921113 3.2400418-.3388359.7009535-.4932421 1.4449605-.4932421 2.2202791zm25.254-5.24007208c-.4181837-.19498605-1.2009375-.2597442-1.6527188-.27682327-2.3139492-.08681858-3.9881133 1.21047907-4.9703086 3.24253255-.3391934.7009535-.493957 1.4428256-.493957 2.2185 0 2.3615372 1.2456152 4.0150047 3.3629824 5.0230256.773461.3679116 1.7720977.4376512 2.6174004.4376512.7434375 0 1.7942578-.453307 2.4540586-.7653558l.114375-.0540838h.5121856l.0564726.011386c.6297773.1305838 1.1051484.5280279 1.1051484 1.2026512v.2729093c0 1.6787303-3.0816914 2.0630093-4.2576093 2.1448465-4.149668.2857187-7.2531622-1.9829512-8.4362286-5.9232349-.2055175-.6842302-.2980898-1.3638348-.2980898-2.076886v-.5454628c0-2.9899046 1.4904492-5.35820233 4.0663887-6.88144184 1.1977207-.70806977 2.5223261-1.06388372 3.9137695-1.06388372h.549c1.4761524 0 2.8357852.41736977 4.0545937 1.24606047l.1000782.0690279.0632637.10389768c.1315312.21704651.2448339.46825113.2448339.72657206v.27290932c0 .7038-.5289843 1.08238605-1.1673398 1.20478605l-.0528985.00925118h-.1636992c-.4131796 0-1.3528417-.42590933-1.7217011-.59883488zm8.9834414 1.86695578c1.0758399-1.07242325 2.1552539-2.14271158 3.2471777-3.19734416.304166-.29425814 1.4561368-1.53960698 1.9097051-1.53960698h.4961015l.0564727.01174186c.6319219.13058372 1.1051485.52873953 1.1051485 1.20478604v.27255349c0 .4611349-.5425664.9969907-.8417285 1.31259767-.636211.67142093-1.3060196 1.32078138-1.9572423 1.97832558l-3.3461835 3.3816558c1.4407675 1.4374884 2.8801054 2.8760442 4.3090781 4.3245628.3963356.3998165.7896301.8026094 1.1798496 1.2083442.1376074.1441046.3406231.3234349.4560703.5230465.1240254.1871581.2001563.3981558.2001563.623386v.2846512l-.0160841.0658256c-.1554784.629079-.5565058 1.1364698-1.2566952 1.1364698h-.2205294c-.4582148 0-.9757617-.5159303-1.2895781-.8109-.6469336-.6070186-1.2713496-1.2453489-1.905416-1.8655326l-2.1263027-2.0779535v3.3211674c0 .765-.4810899 1.3798466-1.2756387 1.3798466h-.2180274c-.795621 0-1.275996-.6148466-1.275996-1.3798466v-18.71439063c0-.765.4807324-1.377 1.275996-1.377h.2180274c.7945488 0 1.2756387.612 1.2756387 1.377zm34.5187323-4.73695114h.2752147c.830649 0 1.38501.55720465 1.38501 1.37949069 0 1.14145115-1.0962127 1.43357442-2.0444527 1.43357442-1.2438285 0-2.4315413.7497-3.2889968 1.59048843-1.0690485 1.0492953-1.5369135 2.3932046-1.5369135 3.8705441v6.674714c0 .765-.480018 1.3791349-1.275996 1.3791349h-.2187427c-.795978 0-1.2756383-.6137791-1.2756383-1.3791349v-7.0579256c0-2.7102349 1.3253198-4.92268605 3.5349023-6.47439069 1.319244-.92689535 2.8304235-1.41613954 4.445613-1.41613954zm-19.6846522 13.22773954c1.0079296.3504768 2.157041.300307 3.1910625.1209767.5289844-.2238069 1.8814687-.8112557 2.3789999-.7251488l.0775605.0131652.0714848.0348697c.3038085.1465953.5936775.3540349.7487985.661814.3624255.7212348.1883617 1.4463837-.523623 1.8559255l-.2369708.1362768c-2.6270507 1.5093628-5.4213749 1.3001441-8.040205-.1095907-1.2520488-.6739116-2.2099395-1.6741047-2.9165625-2.8934791l-.1651289-.285007c-1.6866739-2.9077116-1.4589961-5.9662883.4432031-8.73131858.656584-.9557163 1.5147539-1.69403024 2.5180371-2.27151628l.379582-.21811396c2.4740743-1.42183255 5.1257872-1.32433953 7.6666992-.0765 1.3664243.67106512 2.4733598 1.67125814 3.2360978 2.98670234l.13725.2369721c.554004.95571618-.1636995 1.78832088-.904635 2.35762318-.8599568.6603908-1.7281343 1.4552791-2.5523498 2.1633489-1.8378629 1.5794581-3.6728668 3.1624744-5.5093004 4.743zm-2.3786427-1.6630744c2.0551758-1.7541628 4.1110665-3.5101047 6.1608809-5.2717395.7005469-.6013257 1.4686467-1.2254233 2.1634744-1.8577047-.5575777-.69953028-1.4890193-1.2037186-2.2803513-1.50438138-1.5976758-.60595117-3.172834-.40242562-4.6379063.43943018-1.9175683 1.1023117-2.7342773 2.8575419-2.6627929 5.0418838.0285937.8603581.2609179 1.6894046.7194902 2.4213139.1615547.2579651.3420527.5002744.537205.7311977z"/></svg>

<?xml version="1.0" encoding="UTF-8"?>
<svg width="92px" height="23px" viewBox="0 0 92 23" version="1.1" xmlns="http://www.w3.org/2000/svg" xmlns:xlink="http://www.w3.org/1999/xlink">
    <!-- Generator: Sketch 50.2 (55047) - http://www.bohemiancoding.com/sketch -->
    <title>Docker-225x94-white</title>
    <desc>Created with Sketch.</desc>
    <defs></defs>
    <g id="UI-Design-(Teal)" stroke="none" stroke-width="1" fill="none" fill-rule="evenodd">
        <g id="Services-Teal-v2" transform="translate(-592.000000, -813.000000)" fill="#000" fill-rule="nonzero">
            <g id="tech-logos" transform="translate(264.000000, 790.000000)">
                <g id="Docker-225x94-white" transform="translate(328.000000, 23.000000)">
                    <path d="M13.8025606,7.90593487 L13.8025606,2.08410697 C13.8025606,1.31910697 14.2829356,0.704616277 15.0785567,0.704616277 L15.2987285,0.704616277 C16.0939922,0.704616277 16.5722227,1.3198186 16.5722227,2.08410697 L16.5722227,14.3408302 C16.5722227,17.3296675 15.0889219,19.7079279 12.5040469,21.2229837 C11.3199626,21.9213503 9.96835628,22.288312 8.59206443,22.2850884 L8.04270705,22.2850884 C5.03964844,22.2850884 2.65385742,20.807393 1.12945313,18.2359255 C0.426940013,17.0573429 0.0583637025,15.7112794 0.06290625,14.3408302 L0.06290625,13.7946558 C0.06290625,10.8047512 1.54692188,8.42791395 4.12965235,6.91001163 C5.31351695,6.21020805 6.66587237,5.84314367 8.04270705,5.84790698 L8.59206443,5.84790698 C10.6243652,5.84790698 12.3485684,6.63212093 13.8025606,7.90593487 Z M2.83221094,14.0672093 C2.83221094,16.2262884 3.88338867,17.8495116 5.78380079,18.8849303 C6.55225781,19.3033675 7.38648047,19.5282419 8.2632363,19.5282419 C10.392041,19.5282419 11.9711309,18.5284046 13.0601954,16.7326116 C13.5666621,15.8971605 13.8025606,14.9830745 13.8025606,14.0113465 C13.8025606,12.1397651 12.9125801,10.6791488 11.3974688,9.5942721 C10.4788946,8.9367279 9.44487308,8.6068884 8.31720705,8.6068884 C5.99682422,8.6068884 4.32694922,9.77395815 3.32473829,11.8469302 C2.98661719,12.5478837 2.83221094,13.2918907 2.83221094,14.0672093 Z M26.1804375,5.84790697 L26.5643086,5.84790697 C29.7732422,5.84790697 32.2137188,7.39747675 33.7602832,10.1859907 C34.3786231,11.3014675 34.7095957,12.5190628 34.7095957,13.7946558 L34.7095957,14.3408302 C34.7095957,17.3296675 33.2291543,19.7111302 30.6403477,21.2233395 C29.4419121,21.9232255 28.1180215,22.2850884 26.7290801,22.2850884 L26.1804375,22.2850884 C23.1773789,22.2850884 20.7908731,20.807393 19.2671836,18.2359255 C18.5643282,17.0574358 18.195382,15.7113746 18.1995644,14.3408302 L18.1995644,13.7946558 C18.1995644,10.8043954 19.6896563,8.43538605 22.2659531,6.91072325 C23.4636738,6.20229767 24.7886367,5.84790697 26.1804375,5.84790697 Z M20.9692266,14.0672093 C20.9692266,16.1629535 22.0021758,17.7046954 23.7803496,18.7888605 C24.6152871,19.2976745 25.5349336,19.5282419 26.5103379,19.5282419 C28.5905332,19.5282419 30.1281621,18.4782349 31.1982832,16.7304767 C31.7086816,15.8971605 31.9395762,14.9816512 31.9395762,14.0113465 C31.9395762,12.0625535 30.9966973,10.5738279 29.3847246,9.495 C28.5015352,8.90328142 27.5182675,8.6068884 26.45458,8.6068884 C24.1341973,8.6068884 22.4643223,9.77395815 21.4624687,11.8469302 C21.1236328,12.5478837 20.9692266,13.2918907 20.9692266,14.0672093 Z M46.2232266,8.82713722 C45.8050429,8.63215117 45.0222891,8.56739302 44.5705078,8.55031395 C42.2565586,8.46349537 40.5823945,9.76079302 39.6001992,11.7928465 C39.2610058,12.4938 39.1062422,13.2356721 39.1062422,14.0113465 C39.1062422,16.3728837 40.3518574,18.0263512 42.4692246,19.0343721 C43.2426856,19.4022837 44.2413223,19.4720233 45.086625,19.4720233 C45.8300625,19.4720233 46.8808828,19.0187163 47.5406836,18.7066675 L47.6550586,18.6525837 L48.1672442,18.6525837 L48.2237168,18.6639697 C48.8534941,18.7945535 49.3288652,19.1919976 49.3288652,19.8666209 L49.3288652,20.1395302 C49.3288652,21.8182605 46.2471738,22.2025395 45.0712559,22.2843767 C40.9215879,22.5700954 37.8180937,20.3014255 36.6350273,16.3611418 C36.4295098,15.6769116 36.3369375,14.997307 36.3369375,14.2842558 L36.3369375,13.738793 C36.3369375,10.7488884 37.8273867,8.38059067 40.4033262,6.85735116 C41.6010469,6.14928139 42.9256523,5.79346744 44.3170957,5.79346744 L44.8660957,5.79346744 C46.3422481,5.79346744 47.7018809,6.21083721 48.9206894,7.03952791 L49.0207676,7.10855581 L49.0840313,7.21245349 C49.2155625,7.4295 49.3288652,7.68070462 49.3288652,7.93902555 L49.3288652,8.21193487 C49.3288652,8.91573487 48.7998809,9.29432092 48.1615254,9.41672092 L48.1086269,9.4259721 L47.9449277,9.4259721 C47.5317481,9.4259721 46.592086,9.00006277 46.2232266,8.82713722 Z M55.206668,10.694093 C56.2825079,9.62166975 57.3619219,8.55138142 58.4538457,7.49674884 C58.7580117,7.2024907 59.9099825,5.95714186 60.3635508,5.95714186 L60.8596523,5.95714186 L60.916125,5.96888372 C61.5480469,6.09946744 62.0212735,6.49762325 62.0212735,7.17366976 L62.0212735,7.44622325 C62.0212735,7.90735815 61.4787071,8.44321395 61.179545,8.75882092 C60.543334,9.43024185 59.8735254,10.0796023 59.2223027,10.7371465 L55.8761192,14.1188023 C57.3168867,15.5562907 58.7562246,16.9948465 60.1851973,18.4433651 C60.5815329,18.8431816 60.9748274,19.2459745 61.3650469,19.6517093 C61.5026543,19.7958139 61.70567,19.9751442 61.8211172,20.1747558 C61.9451426,20.3619139 62.0212735,20.5729116 62.0212735,20.7981418 L62.0212735,21.082793 L62.0051894,21.1486186 C61.849711,21.7776976 61.4486836,22.2850884 60.7484942,22.2850884 L60.5279648,22.2850884 C60.06975,22.2850884 59.5522031,21.7691581 59.2383867,21.4741884 C58.5914531,20.8671698 57.9670371,20.2288395 57.3329707,19.6086558 L55.206668,17.5307023 L55.206668,20.8518697 C55.206668,21.6168697 54.7255781,22.2317163 53.9310293,22.2317163 L53.7130019,22.2317163 C52.9173809,22.2317163 52.4370059,21.6168697 52.4370059,20.8518697 L52.4370059,2.13747907 C52.4370059,1.37247907 52.9177383,0.760479067 53.7130019,0.760479067 L53.9310293,0.760479067 C54.7255781,0.760479067 55.206668,1.37247907 55.206668,2.13747907 L55.206668,10.694093 Z M89.7254003,5.95714186 L90.000615,5.95714186 C90.831264,5.95714186 91.385625,6.51434651 91.385625,7.33663255 C91.385625,8.4780837 90.2894123,8.77020697 89.3411723,8.77020697 C88.0973438,8.77020697 86.909631,9.51990697 86.0521755,10.3606954 C84.983127,11.4099907 84.515262,12.7539 84.515262,14.2312395 L84.515262,20.9059535 C84.515262,21.6709535 84.035244,22.2850884 83.239266,22.2850884 L83.0205233,22.2850884 C82.2245453,22.2850884 81.744885,21.6713093 81.744885,20.9059535 L81.744885,13.8480279 C81.744885,11.137793 83.0702048,8.92534185 85.2797873,7.37363721 C86.5990313,6.44674186 88.1102108,5.95749767 89.7254003,5.95749767 L89.7254003,5.95714186 Z M70.0407481,19.1848814 C71.0486777,19.5353582 72.1977891,19.4851884 73.2318106,19.3058581 C73.760795,19.0820512 75.1132793,18.4946024 75.6108105,18.5807093 L75.688371,18.5938745 L75.7598558,18.6287442 C76.0636643,18.7753395 76.3535333,18.9827791 76.5086543,19.2905582 C76.8710798,20.011793 76.697016,20.7369419 75.9850313,21.1464837 L75.7480605,21.2827605 C73.1210098,22.7921233 70.3266856,22.5829046 67.7078555,21.1731698 C66.4558067,20.4992582 65.497916,19.4990651 64.791293,18.2796907 L64.6261641,17.9946837 C62.9394902,15.0869721 63.167168,12.0283954 65.0693672,9.26336512 C65.7259512,8.30764882 66.5841211,7.56933488 67.5874043,6.99184884 L67.9669863,6.77373488 C70.4410606,5.35190233 73.0927735,5.44939535 75.6336855,6.69723488 C77.0001098,7.3683 78.1070453,8.36849302 78.8697833,9.68393722 L79.0070333,9.92090932 C79.5610373,10.8766255 78.8433338,11.7092302 78.1023983,12.2785325 C77.2424415,12.9389233 76.374264,13.7338116 75.5500485,14.4418814 C73.7121856,16.0213395 71.8771817,17.6043558 70.0407481,19.1848814 Z M67.6621054,17.521807 C69.7172812,15.7676442 71.7731719,14.0117023 73.8229863,12.2500675 C74.5235332,11.6487418 75.291633,11.0246442 75.9864607,10.3923628 C75.428883,9.69283252 74.4974414,9.1886442 73.7061094,8.88798142 C72.1084336,8.28203025 70.5332754,8.4855558 69.0682031,9.3274116 C67.1506348,10.4297233 66.3339258,12.1849535 66.4054102,14.3692954 C66.4340039,15.2296535 66.6663281,16.0587 67.1249004,16.7906093 C67.2864551,17.0485744 67.4669531,17.2908837 67.6621054,17.521807 Z" id="Shape"></path>
                </g>
            </g>
        </g>
    </g>
</svg>
